src/svg/angle-circled-up.svg

<svg height="1000" width="857.143" xmlns="http://www.w3.org/2000/svg"><path d="M650.07 635.626l56.916 -56.916q10.602 -10.602 10.602 -25.11t-10.602 -25.11l-253.332 -253.332q-10.602 -10.602 -25.11 -10.602t-25.11 10.602l-253.332 253.332q-10.602 10.602 -10.602 25.11t10.602 25.11l56.916 56.916q10.602 10.602 25.11 10.602t25.11 -10.602l171.306 -171.306 171.306 171.306q10.602 10.602 25.11 10.602t25.11 -10.602zm207.018 -135.594q0 116.622 -57.474 215.109t-155.961 155.961 -215.109 57.474 -215.109 -57.474 -155.961 -155.961 -57.474 -215.109 57.474 -215.109 155.961 -155.961 215.109 -57.474 215.109 57.474 155.961 155.961 57.474 215.109z"/></svg>

<svg height="1000" width="857.1" xmlns="http://www.w3.org/2000/svg"><path d="M650.1 635.6L707 578.7q10.6 -10.6 10.6 -25.1T707 528.5L453.7 275.1q-10.6 -10.6 -25.1 -10.6t-25.1 10.6L150.1 528.5q-10.6 10.6 -10.6 25.1t10.6 25.1l56.9 56.9q10.6 10.6 25.1 10.6t25.2 -10.6L428.6 464.3l171.3 171.3q10.6 10.6 25.1 10.6t25.1 -10.6zM857.1 500q0 116.6 -57.4 215.1t-156 156 -215.1 57.5T213.4 871.1 57.5 715.1 0 500 57.5 284.9t155.9 -156T428.6 71.4t215.1 57.5 156 156T857.1 500z"/></svg>
